Builds/icons/light/tracker-warning.svg

<svg height="32" viewBox="0 0 32 32" width="32" xmlns="http://www.w3.org/2000/svg"><path d="m16.000002 1c-6.3509517 0-11.5000025 4.7958103-11.5000025 10.711067 0 .369709.033485.710286.072579 1.070355.031509.358271.083753.723168.1451609 1.074112 1.316651 7.528273 6.6824576 12.860221 11.2822626 17.144466 4.599805-4.284245 9.965566-9.61598 11.282261-17.144466.061409-.350944.113619-.715841.145157-1.074112.03932-.360069.07258-.700646.07258-1.070355 0-5.9152567-5.149052-10.711067-11.499998-10.711067zm0 6.4296445c2.540473 0 4.600808 1.9152985 4.600808 4.2814225s-2.060404 4.285178-4.600808 4.285178-4.600807-1.919054-4.600807-4.285178 2.060403-4.2814225 4.600807-4.2814225z" fill="#ff8c00" stroke-width="2.59043"/></svg>

<svg width="32" height="32" viewBox="0 0 32 32" fill="none" xmlns="http://www.w3.org/2000/svg">
<path d="M16 1C9.64905 1 4.5 5.79581 4.5 11.7111C4.5 12.0808 4.53348 12.4214 4.57258 12.7814C4.60409 13.1397 4.65633 13.5046 4.71774 13.8555C6.03439 21.3838 11.4002 26.7158 16 31C20.5998 26.7158 25.9656 21.384 27.2823 13.8555C27.3437 13.5046 27.3959 13.1397 27.4274 12.7814C27.4667 12.4214 27.5 12.0808 27.5 11.7111C27.5 5.79581 22.3509 1 16 1ZM16 7.42964C18.5405 7.42964 20.6008 9.34494 20.6008 11.7111C20.6008 14.0772 18.5404 15.9962 16 15.9962C13.4596 15.9962 11.3992 14.0772 11.3992 11.7111C11.3992 9.34494 13.4596 7.42964 16 7.42964Z" fill="#C3BE41"/>
</svg>
